X: 42401
T: Were You At The Fair?
R: strathspey
M: 4/4
K: Gmajor
|:d>BG>A B<GB>d|d>BG>B A>^GA>d|d>BG>A B<GB>a|1 (3gfe (3dcB A>fg>e:|2 (3gfe (3dcB A>^GB>d||
g>fg>e a>ba>f|g>fg>e d>BG>B|g>fg>e a>ba>f|(3gfe (3dcB A>^GB>d|
g>fg>e a>ba>f|g>fg>e d>eg>a|(3bag (3agf (3gfe (3fed|(3efg (3dcB A>fg>e|

